X: 77
T: the Humours of Glendart
R: jig
Z: 2012 John Chambers <jc@trillian.mit.edu>
B: "100 Essential Irish Session Tunes" 1995 Dave Mallinson, ed.
M: 6/8
L: 1/8
K: D
A |\
"D"BAF AFD | FEF DFA | BAF AFD | "Em"FEE "A7"EFA |\
"D"BAF AFD | FEF DFA | "G"dcB "A"AFE | "D"FDD D2 :|
|: A |\
"D"def d2B | "A"ABA AFA | "Bm"def d2f | "Em"efe "A"edB |\
"D"def d2B | "D7"ABA ABc | "G"dcB "A"AFE | "D"FDD D2 :|
